;FLAVOR:Marlin
;TIME:3597
;Filament used: 5.02037m
;Layer height: 0.2
;Generated with Cura_SteamEngine 3.4.1
M190 S60
M104 S210
M109 S210
M82 ;absolute extrusion mode
G21 ;metric values
G90 ;absolute positioning
M82 ;set extruder to absolute mode
M107 ;start with the fan off
G28 X0 Y0 ;move X/Y to min endstops
G28 Z0 ;move Z to min endstops
G1 Z15.0 F100 ;move the platform down 15mm
G92 E0 ;zero the extruded length
G1 F200 E3 ;extrude 3mm of feed stock
G92 E0 ;zero the extruded length again
G1 F100
M117 Printing...
G5
G92 E0
G1 F2400 E-6
;LAYER_COUNT:122
;LAYER:0
M106 S255
M204 S3000
M205 X10 Y10
G0 F3000 X70.298 Y35.388 Z0.2
M204 S1800
M205 X8 Y8
;TYPE:SKIRT
G1 F2400 E0
G1 X70.641 Y34.798 E0.03496
G1 X71.051 Y34.251 E0.06997
G1 X71.522 Y33.756 E0.10497
G1 X72.048 Y33.32 E0.13996
G1 X72.621 Y32.948 E0.17495
G1 X73.234 Y32.645 E0.20998
G1 X73.877 Y32.417 E0.24492
G1 X74.543 Y32.264 E0.27992
G1 X75.509 Y32.184 E0.32957
G1 X134.491 Y32.185 E3.35067
G1 X135.173 Y32.225 E3.38566
G1 X135.846 Y32.344 E3.42067
G1 X136.5 Y32.541 E3.45565
G1 X137.127 Y32.814 E3.49068
G1 X137.717 Y33.157 E3.52563
G1 X138.264 Y33.567 E3.56065
G1 X138.759 Y34.038 E3.59565
G1 X139.195 Y34.564 E3.63064
G1 X139.567 Y35.137 E3.66563
G1 X139.87 Y35.75 E3.70066
G1 X140.098 Y36.393 E3.7356
G1 X140.251 Y37.06 E3.77065
G1 X140.331 Y38.025 E3.82025
G1 X140.331 Y118.007 E7.91698
G1 X140.291 Y118.689 E7.95197
G1 X140.172 Y119.362 E7.98698
G1 X139.975 Y120.016 E8.02196
G1 X139.702 Y120.643 E8.05699
G1 X139.359 Y121.233 E8.09194
G1 X138.949 Y121.78 E8.12696
G1 X138.478 Y122.275 E8.16196
G1 X137.952 Y122.711 E8.19695
G1 X137.379 Y123.083 E8.23194
G1 X136.766 Y123.386 E8.26697
G1 X136.123 Y123.614 E8.30191
G1 X135.457 Y123.767 E8.33691
G1 X134.491 Y123.847 E8.38656
G1 X75.509 Y123.847 E11.40765
G1 X74.827 Y123.807 E11.44265
G1 X74.154 Y123.688 E11.47765
G1 X73.5 Y123.491 E11.51264
G1 X72.873 Y123.218 E11.54767
G1 X72.283 Y122.875 E11.58262
G1 X71.736 Y122.465 E11.61764
G1 X71.241 Y121.994 E11.65263
G1 X70.805 Y121.468 E11.68763
G1 X70.433 Y120.895 E11.72262
G1 X70.13 Y120.282 E11.75765
G1 X69.902 Y119.639 E11.79259
G1 X69.749 Y118.973 E11.82759
G1 X69.669 Y118.007 E11.87724
G1 X69.669 Y38.024 E15.97402
G1 X69.709 Y37.342 E16.00901
G1 X69.828 Y36.669 E16.04402
G1 X70.025 Y36.015 E16.079
G1 X70.298 Y35.388 E16.11403
M204 S3000
M205 X10 Y10
G0 F3000 X70.856 Y35.528
M204 S1800
M205 X8 Y8
G1 F2400 X71.198 Y34.975 E16.14733
G1 X71.605 Y34.469 E16.18059
G1 X72.071 Y34.016 E16.21388
G1 X72.589 Y33.625 E16.24712
G1 X73.152 Y33.299 E16.28045
G1 X73.75 Y33.046 E16.31371
G1 X74.374 Y32.867 E16.34696
G1 X75.016 Y32.767 E16.38024
G1 X75.509 Y32.744 E16.40552
G1 X134.491 Y32.745 E19.42661
G1 X135.139 Y32.785 E19.45986
G1 X135.778 Y32.904 E19.49316
G1 X136.397 Y33.101 E19.52643
G1 X136.987 Y33.372 E19.55968
G1 X137.54 Y33.714 E19.59299
G1 X138.046 Y34.121 E19.62625
G1 X138.499 Y34.587 E19.65954
G1 X138.89 Y35.105 E19.69278
G1 X139.216 Y35.668 E19.7261
G1 X139.469 Y36.266 E19.75936
G1 X139.648 Y36.89 E19.79261
G1 X139.748 Y37.532 E19.82589
G1 X139.771 Y38.025 E19.85117
G1 X139.771 Y118.007 E23.9479
G1 X139.731 Y118.655 E23.98115
G1 X139.612 Y119.294 E24.01444
G1 X139.415 Y119.913 E24.04772
G1 X139.144 Y120.503 E24.08097
G1 X138.802 Y121.056 E24.11428
G1 X138.395 Y121.562 E24.14754
G1 X137.929 Y122.015 E24.18083
G1 X137.411 Y122.406 E24.21407
G1 X136.848 Y122.732 E24.24739
G1 X136.25 Y122.985 E24.28065
G1 X135.626 Y123.164 E24.3139
G1 X134.984 Y123.264 E24.34718
G1 X134.491 Y123.287 E24.37246
G1 X75.509 Y123.287 E27.39355
G1 X74.861 Y123.247 E27.42681
G1 X74.222 Y123.128 E27.4601
G1 X73.603 Y122.931 E27.49337
G1 X73.013 Y122.66 E27.52663
G1 X72.46 Y122.318 E27.55993
G1 X71.954 Y121.911 E27.59319
G1 X71.501 Y121.445 E27.62648
G1 X71.11 Y120.927 E27.65972
G1 X70.784 Y120.364 E27.69305
G1 X70.531 Y119.766 E27.72631
G1 X70.352 Y119.142 E27.75956
G1 X70.252 Y118.5 E27.79284
G1 X70.229 Y118.007 E27.81812
G1 X70.229 Y38.024 E31.91489
G1 X70.269 Y37.376 E31.94815
G1 X70.388 Y36.737 E31.98144
G1 X70.585 Y36.118 E32.01471
G1 X70.856 Y35.528 E32.04797
M204 S3000
M205 X10 Y10
G1 F2400 E26.04797
G1 F300 Z0.275
G0 F3000 X133.66 Y60.17 Z0.275
M204 S1800
M205 X8 Y8
;TYPE:WALL-INNER
G1 F300 Z0.2
G1 F2400 E32.04797
G1 F1800 X133.139 Y59.268 E32.10132
G1 X132.126 Y57.515 E32.20503
G1 X133.139 Y55.762 E32.30873
G1 X133.66 Y54.86 E32.36208
G1 X133.66 Y55.901 E32.38965
G1 X133.66 Y55.902 E32.3897
G1 X133.66 Y59.128 E32.55494
G1 X133.66 Y59.129 E32.55499
G1 X133.66 Y60.17 E32.58256
M204 S3000
M205 X10 Y10
G0 F3000 X133.66 Y60.86
M204 S1800
M205 X8 Y8
G1 F1800 X133.66 Y61.901 E32.63588
G1 X133.66 Y61.902 E32.63593
G1 X133.66 Y65.128 E32.80117
G1 X133.66 Y65.129 E32.80122
G1 X133.66 Y66.17 E32.85454
G1 X133.139 Y65.268 E32.88213
G1 X132.126 Y63.515 E32.98583
G1 X133.139 Y61.762 E33.08954
G1 X133.66 Y60.86 E33.11712
M204 S3000
M205 X10 Y10
G0 F3000 X133.635 Y60.956
G0 X131.627 Y63.329
G0 X128.346 Y63.381
G0 X128.396 Y63.295
M204 S1800
M205 X8 Y8
;TYPE:WALL-OUTER
G1 F1800 X131.607 Y63.295 E33.28159
G1 X133.212 Y60.515 E33.44601
G1 X131.607 Y57.735 E33.61044
G1 X128.396 Y57.735 E33.77491
G1 X126.862 Y60.393 E33.9321
G1 X126.792 Y60.515 E33.9393
G1 X126.808 Y60.543 E33.94095
G1 X128.396 Y63.295 E34.1037
M204 S3000
M205 X10 Y10
G0 F3000 X128.596 Y63.295
G0 X128.596 Y63.395
G0 X128.173 Y63.311
G0 X126.626 Y60.626
G0 X123.376 Y60.627
G0 X121.627 Y63.33
G0 X118.376 Y63.329
G0 X116.627 Y60.626
G0 X113.165 Y60.373
G0 X111.626 Y57.701
G0 X108.376 Y57.702
G0 X106.627 Y60.28
G0 X103.376 Y60.28
G0 X101.626 Y57.701
G0 X98.312 Y57.466
G0 X98.212 Y57.466
M204 S1800
M205 X8 Y8
G1 F1800 X98.184 Y57.418 E34.10654
G1 X96.607 Y54.685 E34.26816
G1 X93.396 Y54.685 E34.43263
G1 X91.819 Y57.419 E34.59429
G1 X91.792 Y57.465 E34.59703
G1 X91.862 Y57.587 E34.60423
G1 X93.396 Y60.246 E34.76146
G1 X96.607 Y60.245 E34.92593
G1 X98.14 Y57.589 E35.08301
G1 X98.212 Y57.466 E35.09031
M204 S3000
M205 X10 Y10
G0 F3000 X98.184 Y57.418
G0 X98.112 Y57.293
G0 X98.199 Y57.244
G0 X98.252 Y57.466
G0 X96.752 Y60.515
G0 X98.252 Y63.44
G0 X96.752 Y66.515
G0 X98.252 Y69.416
G0 X96.752 Y72.515
G0 X98.252 Y75.39
G0 X96.657 Y78.499
G0 X96.607 Y78.585
M204 S1800
M205 X8 Y8
G1 F1800 X93.396 Y78.585 E35.25478
G1 X93.381 Y78.611 E35.25632
G1 X91.792 Y81.365 E35.41918
G1 X91.905 Y81.562 E35.43081
G1 X93.396 Y84.145 E35.58357
G1 X96.607 Y84.145 E35.74804
G1 X98.097 Y81.565 E35.90064
G1 X98.212 Y81.365 E35.91246
G1 X96.623 Y78.613 E36.07523
G1 X96.607 Y78.585 E36.07688
M204 S3000
M205 X10 Y10
G0 F3000 X96.407 Y78.585
G0 X96.407 Y78.485
G0 X93.312 Y78.515
G0 X93.212 Y78.515
M204 S1800
M205 X8 Y8
G1 F1800 X93.109 Y78.337 E36.08463
G1 X91.607 Y75.736 E36.23847
G1 X88.396 Y75.736 E36.40294
G1 X86.895 Y78.337 E36.55676
G1 X86.792 Y78.516 E36.56734
G1 X88.381 Y81.269 E36.73015
G1 X88.396 Y81.295 E36.73169
G1 X91.607 Y81.296 E36.89616
G1 X91.623 Y81.269
G1 X93.212 Y78.515 E36.95261
M204 S3000
M205 X10 Y10
G0 F3000 X93.112 Y78.342
G0 X93.199 Y78.293
G0 X93.252 Y78.515
G0 X91.752 Y81.365
G0 X93.244 Y83.921
G0 X93.251 Y84.768
G0 X91.752 Y87.34
G0 X93.299 Y90.66
G0 X91.752 Y93.315
G0 X93.346 Y96.424
G0 X93.396 Y96.51
M204 S1800
M205 X8 Y8
G1 F1800 X93.349 Y96.593 E36.95749
G1 X91.792 Y99.29 E37.117
G1 X91.938 Y99.543 E37.13197
G1 X93.396 Y102.07 E37.2814
G1 X96.607 Y102.07 E37.44587
G1 X98.065 Y99.545 E37.59521
G1 X98.212 Y99.291 E37.61024
G1 X96.655 Y96.593 E37.7698
G1 X96.607 Y96.51 E37.77471
G1 X93.396 Y96.51 E37.93918
M204 S3000
M205 X10 Y10
G0 F3000 X93.349 Y96.593
G0 X93.297 Y96.683
G0 X93.211 Y96.633
G0 X91.657 Y99.382
G0 X91.607 Y99.296
M204 S1800
M205 X8 Y8
G1 F1800 X91.655 Y99.212 E37.9397
G1 X93.212 Y96.515 E37.98446
G1 X93.077 Y96.281 E37.99401
G1 X91.607 Y93.735 E38.14459
G1 X88.396 Y93.736 E38.30906
G1 X86.927 Y96.281 E38.45957
G1 X86.792 Y96.515 E38.47341
G1 X88.348 Y99.212 E38.6329
G1 X88.396 Y99.295 E38.63781
G1 X91.607 Y99.296 E38.80228
M204 S3000
M205 X10 Y10
G0 F3000 X91.655 Y99.212
G0 X91.707 Y99.122
G0 X91.793 Y99.173
G0 X91.627 Y99.33
G0 X88.376 Y99.329
G0 X86.627 Y96.476
G0 X83.376 Y96.129
G0 X81.627 Y93.701
G0 X77.777 Y93.515
G0 X77.877 Y93.515
M204 S1800
M205 X8 Y8
;TYPE:WALL-INNER
G1 F1800 X76.861 Y95.274 E38.90632
G1 X76.34 Y96.177 E38.95972
G1 X76.34 Y95.135 E38.98732
G1 X76.34 Y95.134 E38.98737
G1 X76.34 Y91.896 E39.15322
G1 X76.34 Y91.895 E39.15327
G1 X76.34 Y90.853 E39.20664
G1 X76.861 Y91.756 E39.23425
G1 X77.877 Y93.515 E39.3383
M204 S3000
M205 X10 Y10
G0 F3000 X77.777 Y93.515
G0 X76.365 Y96.949
G0 X76.34 Y96.853
M204 S1800
M205 X8 Y8
G1 F1800 X76.861 Y97.756 E39.3917
G1 X77.877 Y99.515 E39.49574
G1 X76.861 Y101.274 E39.59979
G1 X76.34 Y102.177 E39.65319
G1 X76.34 Y101.135 E39.68078
G1 X76.34 Y101.134 E39.68083
G1 X76.34 Y97.896 E39.84669
G1 X76.34 Y97.895 E39.84674
G1 X76.34 Y96.853 E39.87433
M204 S3000
M205 X10 Y10
G0 F3000 X76.365 Y96.949
G0 X77.777 Y93.515
G0 X78.396 Y93.735
M204 S1800
M205 X8 Y8
;TYPE:WALL-OUTER
G1 F1800 X76.792 Y96.515 E40.03873
G1 X78.396 Y99.295 E40.20312
G1 X81.607 Y99.295 E40.36759
G1 X81.655 Y99.212 E40.3725
G1 X83.212 Y96.515 E40.53201
G1 X83.077 Y96.281 E40.54585
G1 X81.607 Y93.735 E40.69643
G1 X78.396 Y93.735 E40.8609
M204 S3000
M205 X10 Y10
G0 F3000 X78.297 Y93.908
G0 X77.764 Y93.6
G0 X77.726 Y93.577
G0 X81.627 Y93.701
G0 X83.346 Y96.425
G0 X83.396 Y96.511
M204 S1800
M205 X8 Y8
G1 F1800 X83.349 Y96.593 E40.86145
G1 X81.792 Y99.29 E40.9062
G1 X81.938 Y99.543 E40.91676
G1 X83.396 Y102.071 E41.06624
G1 X86.607 Y102.071 E41.23071
G1 X88.065 Y99.546 E41.38005
G1 X88.212 Y99.291 E41.39071
G1 X86.655 Y96.593 E41.43548
G1 X86.607 Y96.51 E41.43608
G1 X83.396 Y96.511 E41.60055
M204 S3000
M205 X10 Y10
G0 F3000 X83.349 Y96.593
G0 X83.296 Y96.684
G0 X83.211 Y96.633
G0 X81.627 Y99.329
G0 X78.376 Y99.701
G0 X76.752 Y102.515
G0 X77.777 Y105.515
G0 X77.877 Y105.515
M204 S1800
M205 X8 Y8
;TYPE:WALL-INNER
G1 F1800 X76.861 Y107.275 E41.70464
G1 X76.34 Y108.178 E41.75804
G1 X76.34 Y107.136 E41.78563
G1 X76.34 Y107.135 E41.78568
G1 X76.34 Y103.896 E41.95159
G1 X76.34 Y103.895 E41.95164
G1 X76.34 Y102.853 E42.00501
G1 X76.861 Y103.756 E42.03262
G1 X77.877 Y105.515 E42.13667
M204 S3000
M205 X10 Y10
G0 F3000 X77.777 Y105.515
G0 X81.627 Y105.329
G0 X83.312 Y102.515
G0 X83.212 Y102.515
M204 S1800
M205 X8 Y8
;TYPE:WALL-OUTER
G1 F1800 X83.066 Y102.263 E42.15158
G1 X81.607 Y99.735 E42.25344
G1 X78.396 Y99.735 E42.38267
G1 X76.792 Y102.515 E42.54706
G1 X78.396 Y105.295 E42.71146
G1 X81.607 Y105.295 E42.87593
G1 X81.666 Y105.193 E42.88196
G1 X83.212 Y102.515 E43.04035
M204 S3000
M205 X10 Y10
G0 F3000 X83.112 Y102.342
G0 X83.396 Y102.486
M204 S1800
M205 X8 Y8
G1 F1800 X83.338 Y102.587 E43.0415
G1 X81.792 Y105.265 E43.08255
G1 X81.949 Y105.537 E43.09372
G1 X83.396 Y108.045 E43.24203
G1 X86.607 Y108.046 E43.4065
G1 X88.054 Y105.538 E43.55481
G1 X88.212 Y105.265 E43.57096
G1 X86.667 Y102.589 E43.72924
G1 X86.607 Y102.485 E43.73539
G1 X83.396 Y102.486 E43.85712
M204 S3000
M205 X10 Y10
G0 F3000 X83.338 Y102.587
G0 X83.296 Y102.659
G0 X83.211 Y102.608
G0 X81.752 Y105.265
G0 X83.376 Y108.079
G0 X86.656 Y108.374
G0 X86.607 Y108.46
M204 S1800
M205 X8 Y8
G1 F1800 X83.396 Y108.461 E43.97901
G1 X83.327 Y108.58 E43.98605
G1 X81.792 Y111.24 E44.14336
G1 X81.959 Y111.531 E44.16054
G1 X83.396 Y114.02 E44.30775
G1 X86.607 Y114.021 E44.47222
G1 X88.044 Y111.532 E44.61943
G1 X88.212 Y111.24 E44.63669
G1 X86.678 Y108.583 E44.79383
G1 X86.607 Y108.46 E44.80111
M204 S3000
M205 X10 Y10
G0 F3000 X86.407 Y108.46
G0 X86.407 Y108.36
G0 X83.376 Y108.427
G0 X81.627 Y111.329
G0 X77.777 Y111.515
G0 X77.877 Y111.515
M204 S1800
M205 X8 Y8
;TYPE:WALL-INNER
G1 F1800 X76.861 Y113.274 E44.90515
G1 X76.34 Y114.177 E44.95855
G1 X76.34 Y113.135 E44.98615
G1 X76.34 Y113.134 E44.9862
G1 X76.34 Y109.896 E45.15205
G1 X76.34 Y109.895 E45.1521
G1 X76.34 Y108.854 E45.20542
G1 X76.861 Y109.756 E45.23301
G1 X77.877 Y111.515 E45.33706
M204 S3000
M205 X10 Y10
G0 F3000 X77.777 Y111.515
G0 X81.627 Y111.329
G0 X83.312 Y108.515
G0 X83.212 Y108.515
M204 S1800
M205 X8 Y8
;TYPE:WALL-OUTER
G1 F1800 X83.055 Y108.244 E45.34777
G1 X81.607 Y105.736 E45.45227
G1 X78.396 Y105.735 E45.58164
G1 X76.792 Y108.516 E45.74608
G1 X78.396 Y111.295 E45.91043
G1 X81.607 Y111.295 E46.0749
G1 X81.677 Y111.174 E46.07657
G1 X83.212 Y108.515 E46.11364
M204 S3000
M205 X10 Y10
G0 F3000 X83.112 Y108.342
G0 X83.199 Y108.293
G0 X83.252 Y108.515
G0 X81.627 Y111.329
G0 X83.252 Y114.515
G0 X82.204 Y116.329
G0 X77.446 Y116.941
G0 X77.496 Y116.855
M204 S1800
M205 X8 Y8
;TYPE:WALL-INNER
G1 F1800 X132.507 Y116.855 E48.93133
G1 X132.61 Y116.677 E48.94187
G1 X133.139 Y115.761 E48.99605
G1 X133.66 Y114.859 E49.0494
G1 X133.66 Y115.9 E49.07697
G1 X133.66 Y115.901 E49.07702
G1 X133.66 Y117.176 E49.14233
G1 X132.713 Y117.176 E49.19083
G1 X132.507 Y117.176 E49.19944
G1 X77.496 Y117.176 E50.81748
G1 X77.29 Y117.176 E50.82803
G1 X76.34 Y117.176 E50.87669
G1 X76.34 Y115.896 E50.94225
G1 X76.34 Y115.895 E50.9423
G1 X76.34 Y114.853 E50.99567
G1 X76.861 Y115.756 E51.02328
G1 X77.393 Y116.677 E51.07776
G1 X77.496 Y116.855 E51.08635
M204 S3000
M205 X10 Y10
G0 F3000 X77.446 Y116.941
G0 X82.323 Y116.955
G0 X82.323 Y116.295
M204 S1800
M205 X8 Y8
;TYPE:WALL-OUTER
G1 F1800 X87.358 Y116.296 E51.34424
G1 X87.473 Y116.096 E51.35606
G1 X87.519 Y116.016 E51.36079
G1 X86.688 Y114.576 E51.44595
G1 X86.607 Y114.435 E51.45427
G1 X83.396 Y114.436 E51.57616
G1 X83.316 Y114.574 E51.58433
G1 X82.323 Y116.295 E51.6861
M204 S3000
M205 X10 Y10
G0 F3000 X82.523 Y116.295
G0 X82.523 Y116.911
G0 X82.523 Y116.955
G0 X82.289 Y116.314
G0 X83.312 Y114.515
G0 X83.212 Y114.515
M204 S1800
M205 X8 Y8
G1 F1800 X83.044 Y114.225 E51.69737
G1 X81.607 Y111.735 E51.80427
G1 X78.396 Y111.735 E51.9335
G1 X76.792 Y114.515 E52.09789
G1 X77.819 Y116.295 E52.20315
G1 X82.184 Y116.295 E52.42673
G1 X82.218 Y116.236 E52.43022
G1 X83.212 Y114.515 E52.45198
M204 S3000
M205 X10 Y10
G0 F3000 X83.112 Y114.342
G0 X83.199 Y114.293
G0 X86.627 Y114.401
G0 X87.559 Y116.016
G0 X87.819 Y116.955
G0 X87.819 Y116.295
M204 S1800
M205 X8 Y8
G1 F1800 X92.184 Y116.296 E52.67556
G1 X92.219 Y116.236 E52.67912
G1 X93.212 Y114.515 E52.78089
G1 X93.044 Y114.225 E52.79805
G1 X91.607 Y111.735 E52.94531
G1 X88.396 Y111.736 E53.10978
G1 X86.96 Y114.224 E53.21657
G1 X86.792 Y114.515 E53.22786
G1 X87.623 Y115.955 E53.2461
G1 X87.704 Y116.095 E53.25035
G1 X87.819 Y116.295 E53.25824
M204 S3000
M205 X10 Y10
G0 F3000 X88.019 Y116.295
G0 X88.019 Y116.911
G0 X88.019 Y116.955
G0 X92.323 Y116.955
G0 X92.323 Y116.295
M204 S1800
M205 X8 Y8
G1 F1800 X97.358 Y116.295 E53.51614
G1 X97.473 Y116.095 E53.52796
G1 X97.519 Y116.015 E53.53268
G1 X96.688 Y114.576 E53.6178
G1 X96.607 Y114.435 E53.62613
G1 X93.396 Y114.435 E53.7906
G1 X93.316 Y114.574 E53.79288
G1 X92.323 Y116.295 E53.81451
M204 S3000
M205 X10 Y10
G0 F3000 X92.523 Y116.295
G0 X92.523 Y116.911
G0 X92.523 Y116.955
G0 X92.289 Y116.315
G0 X93.252 Y114.515
G0 X91.657 Y111.382
G0 X91.607 Y111.296
M204 S1800
M205 X8 Y8
G1 F1800 X91.677 Y111.174 E53.82171
G1 X93.212 Y108.515 E53.97897
G1 X93.055 Y108.244 E53.99501
G1 X91.607 Y105.736 E54.14335
G1 X88.396 Y105.736 E54.30782
G1 X86.949 Y108.243 E54.41225
G1 X86.792 Y108.516 E54.42297
G1 X88.326 Y111.174 E54.4599
G1 X88.396 Y111.295 E54.46155
G1 X91.607 Y111.296 E54.59077
M204 S3000
M205 X10 Y10
G0 F3000 X91.677 Y111.174
G0 X91.707 Y111.123
G0 X91.792 Y111.174
G0 X93.346 Y108.374
G0 X93.396 Y108.46
M204 S1800
M205 X8 Y8
G1 F1800 X93.327 Y108.58 E54.5925
G1 X91.792 Y111.24 E54.62962
G1 X91.959 Y111.531 E54.64131
G1 X93.396 Y114.02 E54.74818
G1 X96.607 Y114.02 E54.87006
G1 X98.043 Y111.533 E55.01716
G1 X98.212 Y111.24 E55.03448
G1 X96.678 Y108.583 E55.19163
G1 X96.607 Y108.46 E55.19891
G1 X93.396 Y108.46 E55.36337
M204 S3000
M205 X10 Y10
G0 F3000 X93.327 Y108.58
G0 X93.297 Y108.633
G0 X93.211 Y108.583
G0 X93.233 Y108.546
G0 X91.657 Y105.382
G0 X91.607 Y105.296
M204 S1800
M205 X8 Y8
G1 F1800 X91.666 Y105.193 E55.36945
G1 X93.212 Y102.515 E55.52784
G1 X93.066 Y102.262 E55.5428
G1 X91.607 Y99.735 E55.64462
G1 X88.396 Y99.736 E55.77385
G1 X86.938 Y102.262 E55.87562
G1 X86.792 Y102.515 E55.88574
