;FLAVOR:Marlin
;TIME:1472
;Filament used: 1.2604m
;Layer height: 0.2
;Generated with Cura_SteamEngine 3.4.1
M190 S60
M104 S210
M109 S210
M82 ;absolute extrusion mode
G21 ;metric values
G90 ;absolute positioning
M82 ;set extruder to absolute mode
M107 ;start with the fan off
G28 X0 Y0 ;move X/Y to min endstops
G28 Z0 ;move Z to min endstops
G1 Z15.0 F100 ;move the platform down 15mm
G92 E0 ;zero the extruded length
G1 F200 E3 ;extrude 3mm of feed stock
G92 E0 ;zero the extruded length again
G1 F100
M117 Printing...
G5
G92 E0
G1 F2400 E-6
;LAYER_COUNT:9
;LAYER:0
M106 S255
M204 S3000
M205 X10 Y10
G0 F3000 X70.641 Y41.379 Z0.2
M204 S1800
M205 X8 Y8
;TYPE:SKIRT
G1 F2400 E0
G1 X71.051 Y40.832 E0.03501
G1 X71.522 Y40.337 E0.07001
G1 X72.048 Y39.901 E0.10501
G1 X72.621 Y39.529 E0.14
G1 X73.234 Y39.226 E0.17502
G1 X73.877 Y38.998 E0.20997
G1 X74.543 Y38.845 E0.24497
G1 X75.509 Y38.765 E0.29462
G1 X134.491 Y38.767 E3.31571
G1 X135.173 Y38.807 E3.3507
G1 X135.846 Y38.926 E3.38571
G1 X136.5 Y39.123 E3.42069
G1 X137.127 Y39.396 E3.45572
G1 X137.717 Y39.739 E3.49068
G1 X138.264 Y40.149 E3.52569
G1 X138.759 Y40.62 E3.56069
G1 X139.195 Y41.146 E3.59568
G1 X139.567 Y41.719 E3.63068
G1 X139.87 Y42.332 E3.6657
G1 X140.098 Y42.976 E3.70069
G1 X140.251 Y43.642 E3.7357
G1 X140.331 Y44.607 E3.78529
G1 X140.331 Y124.587 E7.88192
G1 X140.291 Y125.269 E7.91691
G1 X140.172 Y125.942 E7.95192
G1 X139.975 Y126.596 E7.9869
G1 X139.702 Y127.223 E8.02193
G1 X139.359 Y127.813 E8.05688
G1 X138.949 Y128.36 E8.0919
G1 X138.478 Y128.855 E8.1269
G1 X137.952 Y129.291 E8.16189
G1 X137.379 Y129.663 E8.19688
G1 X136.766 Y129.966 E8.23191
G1 X136.123 Y130.194 E8.26685
G1 X135.457 Y130.347 E8.30185
G1 X134.491 Y130.427 E8.3515
G1 X75.509 Y130.427 E11.37259
G1 X74.827 Y130.387 E11.40759
G1 X74.154 Y130.268 E11.44259
G1 X73.5 Y130.071 E11.47758
G1 X72.873 Y129.798 E11.51261
G1 X72.283 Y129.455 E11.54756
G1 X71.736 Y129.045 E11.58258
G1 X71.241 Y128.574 E11.61757
G1 X70.805 Y128.048 E11.65257
G1 X70.433 Y127.475 E11.68756
G1 X70.13 Y126.862 E11.72259
G1 X69.902 Y126.219 E11.75753
G1 X69.749 Y125.553 E11.79253
G1 X69.669 Y124.587 E11.84218
G1 X69.669 Y44.605 E15.93891
G1 X69.709 Y43.923 E15.9739
G1 X69.828 Y43.25 E16.0089
G1 X70.025 Y42.596 E16.04389
G1 X70.298 Y41.969 E16.07892
G1 X70.641 Y41.379 E16.11387
M204 S3000
M205 X10 Y10
G0 F3000 X71.198 Y41.556
M204 S1800
M205 X8 Y8
G1 F2400 X71.605 Y41.05 E16.14713
G1 X72.071 Y40.597 E16.18042
G1 X72.589 Y40.206 E16.21366
G1 X73.152 Y39.88 E16.24699
G1 X73.75 Y39.627 E16.28025
G1 X74.374 Y39.448 E16.3135
G1 X75.016 Y39.348 E16.34678
G1 X75.509 Y39.325 E16.37206
G1 X134.491 Y39.327 E19.39315
G1 X135.14 Y39.367 E19.42645
G1 X135.778 Y39.486 E19.4597
G1 X136.397 Y39.683 E19.49297
G1 X136.987 Y39.954 E19.52623
G1 X137.54 Y40.296 E19.55953
G1 X138.046 Y40.703 E19.59279
G1 X138.499 Y41.169 E19.62608
G1 X138.89 Y41.688 E19.65936
G1 X139.216 Y42.25 E19.69264
G1 X139.469 Y42.848 E19.7259
G1 X139.648 Y43.473 E19.7592
G1 X139.748 Y44.114 E19.79243
G1 X139.771 Y44.607 E19.81771
G1 X139.771 Y124.587 E23.91433
G1 X139.731 Y125.235 E23.94759
G1 X139.612 Y125.874 E23.98088
G1 X139.415 Y126.493 E24.01415
G1 X139.144 Y127.083 E24.04741
G1 X138.802 Y127.636 E24.08071
G1 X138.395 Y128.142 E24.11397
G1 X137.929 Y128.595 E24.14726
G1 X137.411 Y128.986 E24.1805
G1 X136.848 Y129.312 E24.21383
G1 X136.25 Y129.565 E24.24708
G1 X135.626 Y129.744 E24.28033
G1 X134.984 Y129.844 E24.31361
G1 X134.491 Y129.867 E24.33889
G1 X75.509 Y129.867 E27.35999
G1 X74.861 Y129.827 E27.39324
G1 X74.222 Y129.708 E27.42653
G1 X73.603 Y129.511 E27.45981
G1 X73.013 Y129.24 E27.49306
G1 X72.46 Y128.898 E27.52637
G1 X71.954 Y128.491 E27.55963
G1 X71.501 Y128.025 E27.59292
G1 X71.11 Y127.507 E27.62616
G1 X70.784 Y126.944 E27.65948
G1 X70.531 Y126.346 E27.69274
G1 X70.352 Y125.722 E27.72599
G1 X70.252 Y125.08 E27.75927
G1 X70.229 Y124.587 E27.78455
G1 X70.229 Y44.605 E31.88128
G1 X70.269 Y43.957 E31.91453
G1 X70.388 Y43.318 E31.94782
G1 X70.585 Y42.699 E31.9811
G1 X70.856 Y42.109 E32.01435
G1 X71.198 Y41.556 E32.04766
M204 S3000
M205 X10 Y10
G1 F2400 E26.04766
G1 F300 Z0.275
G0 F3000 X133.139 Y119.848 Z0.275
M204 S1800
M205 X8 Y8
;TYPE:WALL-INNER
G1 F300 Z0.2
G1 F2400 E32.04766
G1 F1800 X132.126 Y118.095 E32.15136
G1 X133.139 Y116.342 E32.25506
G1 X133.66 Y115.44 E32.30842
G1 X133.66 Y116.481 E32.33599
G1 X133.66 Y116.482 E32.33604
G1 X133.66 Y119.708 E32.50127
G1 X133.66 Y119.709 E32.50133
G1 X133.66 Y120.75 E32.55465
G1 X133.139 Y119.848 E32.58223
M204 S3000
M205 X10 Y10
G0 F3000 X133.226 Y119.799
G0 X133.635 Y121.535
G0 X133.66 Y121.439
M204 S1800
M205 X8 Y8
G1 F1800 X133.66 Y122.48 E32.63555
G1 X133.66 Y122.481 E32.63561
G1 X133.66 Y123.756 E32.70091
G1 X132.713 Y123.756 E32.74942
G1 X132.507 Y123.756 E32.75997
G1 X77.496 Y123.756 E35.57767
G1 X77.29 Y123.756 E35.58822
G1 X76.34 Y123.756 E35.63688
G1 X76.34 Y122.476 E35.70244
G1 X76.34 Y122.475 E35.70249
G1 X76.34 Y121.433 E35.75586
G1 X76.861 Y122.336 E35.78347
G1 X77.393 Y123.257 E35.83795
G1 X77.496 Y123.435 E35.84654
G1 X132.507 Y123.435 E37.46457
G1 X132.61 Y123.257 E37.47316
G1 X133.139 Y122.341 E37.52734
G1 X133.66 Y121.439 E37.55492
M204 S3000
M205 X10 Y10
G0 F3000 X133.635 Y121.535
G0 X132.526 Y123.469
G0 X127.819 Y123.535
G0 X127.819 Y122.875
M204 S1800
M205 X8 Y8
;TYPE:WALL-OUTER
G1 F1800 X132.184 Y122.875 E37.7785
G1 X133.212 Y121.095 E37.88379
G1 X131.607 Y118.315 E38.04821
G1 X128.396 Y118.315 E38.21268
G1 X126.96 Y120.804 E38.35986
G1 X126.792 Y121.095 E38.37707
G1 X127.623 Y122.535 E38.46223
G1 X127.704 Y122.675 E38.47052
G1 X127.819 Y122.875 E38.48233
M204 S3000
M205 X10 Y10
G0 F3000 X128.019 Y122.875
G0 X128.019 Y123.491
G0 X128.019 Y123.535
G0 X122.323 Y123.535
G0 X122.323 Y122.875
M204 S1800
M205 X8 Y8
G1 F1800 X127.358 Y122.876 E38.74023
G1 X127.473 Y122.676 E38.74802
G1 X127.519 Y122.596 E38.74883
G1 X126.688 Y121.156 E38.76708
G1 X126.607 Y121.015 E38.76946
G1 X123.396 Y121.016 E38.93393
G1 X123.316 Y121.154 E38.9421
G1 X122.323 Y122.875 E39.04387
M204 S3000
M205 X10 Y10
G0 F3000 X122.523 Y122.875
G0 X122.523 Y123.491
G0 X122.523 Y123.535
G0 X122.289 Y122.894
G0 X123.312 Y121.095
G0 X123.212 Y121.095
M204 S1800
M205 X8 Y8
G1 F1800 X123.044 Y120.805 E39.05514
G1 X121.607 Y118.315 E39.20239
G1 X118.396 Y118.316 E39.36686
G1 X116.96 Y120.804 E39.514
G1 X116.792 Y121.095 E39.53121
G1 X117.623 Y122.536 E39.61642
G1 X117.703 Y122.674 E39.62459
G1 X117.819 Y122.875 E39.63647
G1 X122.184 Y122.876 E39.86005
G1 X122.219 Y122.816 E39.86361
G1 X123.212 Y121.095 E39.88524
M204 S3000
M205 X10 Y10
G0 F3000 X123.112 Y120.922
G0 X123.199 Y120.873
G0 X121.657 Y117.962
G0 X121.607 Y117.876
M204 S1800
M205 X8 Y8
G1 F1800 X121.677 Y117.754 E39.89244
G1 X123.212 Y115.095 E40.0497
G1 X123.055 Y114.824 E40.06574
G1 X121.607 Y112.316 E40.21408
G1 X118.396 Y112.316 E40.37855
G1 X116.95 Y114.823 E40.52679
G1 X116.792 Y115.096 E40.54294
G1 X118.326 Y117.754 E40.70013
G1 X118.396 Y117.875 E40.70729
G1 X121.607 Y117.876 E40.83652
M204 S3000
M205 X10 Y10
G0 F3000 X121.677 Y117.754
G0 X121.707 Y117.703
G0 X121.792 Y117.754
G0 X123.252 Y115.095
G0 X121.752 Y111.845
G0 X123.376 Y109.032
G0 X121.752 Y105.87
G0 X123.376 Y103.057
G0 X121.752 Y99.895
G0 X123.376 Y97.082
G0 X126.584 Y97.075
G0 X128.252 Y93.921
G0 X126.752 Y91.095
G0 X128.376 Y87.909
G0 X126.752 Y85.096
G0 X128.376 Y81.909
G0 X126.752 Y79.095
G0 X128.376 Y76.281
G0 X131.627 Y75.909
G0 X133.252 Y73.095
G0 X133.635 Y66.654
G0 X133.66 Y66.75
M204 S1800
M205 X8 Y8
;TYPE:WALL-INNER
G1 F1800 X133.139 Y65.848 E40.88987
G1 X132.126 Y64.095 E40.99358
G1 X133.139 Y62.342 E41.09728
G1 X133.66 Y61.44 E41.15063
G1 X133.66 Y62.481 E41.1782
G1 X133.66 Y62.482 E41.17826
G1 X133.66 Y65.708 E41.34349
G1 X133.66 Y65.709 E41.34354
G1 X133.66 Y66.75 E41.37111
M204 S3000
M205 X10 Y10
G0 F3000 X133.66 Y67.44
M204 S1800
M205 X8 Y8
G1 F1800 X133.66 Y68.481 E41.42443
G1 X133.66 Y68.482 E41.42449
G1 X133.66 Y71.708 E41.58972
G1 X133.66 Y71.709 E41.58977
G1 X133.66 Y72.75 E41.6431
G1 X133.139 Y71.848 E41.67068
G1 X132.126 Y70.095 E41.77439
G1 X133.139 Y68.342 E41.87809
G1 X133.66 Y67.44 E41.90568
M204 S3000
M205 X10 Y10
G0 F3000 X133.635 Y67.536
G0 X131.627 Y69.909
G0 X128.346 Y69.961
G0 X128.396 Y69.875
M204 S1800
M205 X8 Y8
;TYPE:WALL-OUTER
G1 F1800 X131.607 Y69.875 E42.07015
G1 X133.212 Y67.095 E42.23457
G1 X131.607 Y64.315 E42.39899
G1 X128.396 Y64.315 E42.56346
G1 X126.862 Y66.973 E42.72065
G1 X126.792 Y67.095 E42.72785
G1 X126.808 Y67.123 E42.7295
G1 X128.396 Y69.875 E42.89225
M204 S3000
M205 X10 Y10
G0 F3000 X128.596 Y69.875
G0 X128.596 Y69.975
G0 X128.176 Y69.897
G0 X126.626 Y67.206
G0 X123.376 Y67.207
G0 X121.627 Y69.91
G0 X118.376 Y69.909
G0 X116.627 Y67.206
G0 X113.346 Y67.154
G0 X113.396 Y67.24
M204 S1800
M205 X8 Y8
G1 F1800 X111.808 Y69.992 E43.05499
G1 X111.792 Y70.02 E43.05664
G1 X111.873 Y70.161 E43.06497
G1 X113.396 Y72.8 E43.22104
G1 X116.607 Y72.8 E43.38551
G1 X118.129 Y70.163 E43.54146
G1 X118.212 Y70.02 E43.54993
G1 X118.196 Y69.992 E43.55158
G1 X116.607 Y67.24 E43.71435
G1 X113.396 Y67.24 E43.87882
M204 S3000
M205 X10 Y10
G0 F3000 X113.297 Y67.413
G0 X113.211 Y67.363
G0 X111.657 Y69.962
G0 X111.607 Y69.876
M204 S1800
M205 X8 Y8
G1 F1800 X113.196 Y67.123 E43.94614
G1 X113.212 Y67.095 E43.94779
G1 X113.142 Y66.973 E43.95499
G1 X111.607 Y64.315 E44.11221
G1 X108.396 Y64.316 E44.27668
G1 X106.862 Y66.973 E44.43383
G1 X106.792 Y67.095 E44.44103
G1 X106.808 Y67.123 E44.44268
G1 X108.396 Y69.875 E44.60543
G1 X111.607 Y69.876 E44.7699
M204 S3000
M205 X10 Y10
G0 F3000 X111.707 Y69.703
G0 X111.792 Y69.754
G0 X111.76 Y69.969
G0 X113.312 Y73.095
G0 X113.212 Y73.095
M204 S1800
M205 X8 Y8
G1 F1800 X113.131 Y72.954 E44.77822
G1 X111.607 Y70.315 E44.86366
G1 X108.396 Y70.316 E44.99288
G1 X106.873 Y72.955 E45.14895
G1 X106.792 Y73.095 E45.15723
G1 X106.797 Y73.104 E45.15776
G1 X108.396 Y75.875 E45.32163
G1 X111.607 Y75.876 E45.4861
G1 X113.206 Y73.105 E45.64997
G1 X113.212 Y73.095 E45.65056
M204 S3000
M205 X10 Y10
G0 F3000 X113.131 Y72.954
G0 X113.112 Y72.922
G0 X113.199 Y72.873
G0 X113.252 Y73.095
G0 X111.627 Y75.91
G0 X108.312 Y75.996
G0 X108.212 Y75.996
M204 S1800
M205 X8 Y8
G1 F1800 X108.206 Y75.986 E45.65098
G1 X106.607 Y73.215 E45.71539
G1 X103.396 Y73.216 E45.87986
G1 X101.797 Y75.986 E46.04368
G1 X101.792 Y75.995 E46.04421
G1 X101.883 Y76.154 E46.05359
G1 X103.396 Y78.775 E46.2086
G1 X106.607 Y78.776 E46.37307
G1 X108.119 Y76.158 E46.52792
G1 X108.212 Y75.996 E46.53749
M204 S3000
M205 X10 Y10
G0 F3000 X108.206 Y75.986
G0 X108.112 Y75.823
G0 X108.199 Y75.774
G0 X106.627 Y73.181
G0 X103.312 Y73.095
G0 X103.212 Y73.095
M204 S1800
M205 X8 Y8
G1 F1800 X103.131 Y72.954 E46.54582
G1 X101.607 Y70.315 E46.70191
G1 X98.396 Y70.316 E46.86638
G1 X96.873 Y72.954 E47.0224
G1 X96.792 Y73.095 E47.03073
G1 X96.797 Y73.104 E47.03126
G1 X98.396 Y75.875 E47.19513
G1 X101.607 Y75.876 E47.3596
G1 X103.206 Y73.105 E47.42386
G1 X103.212 Y73.095 E47.42428
M204 S3000
M205 X10 Y10
G0 F3000 X103.131 Y72.954
G0 X103.112 Y72.922
G0 X103.199 Y72.873
G0 X101.752 Y70.02
G0 X103.312 Y67.095
G0 X103.212 Y67.095
M204 S1800
M205 X8 Y8
G1 F1800 X103.142 Y66.974 E47.43144
G1 X101.607 Y64.315 E47.5887
G1 X98.396 Y64.316 E47.75317
G1 X96.863 Y66.972 E47.91024
G1 X96.792 Y67.095 E47.91752
G1 X96.808 Y67.123 E47.91917
G1 X98.396 Y69.875 E48.08191
G1 X101.607 Y69.876 E48.21114
G1 X103.195 Y67.124 E48.37388
G1 X103.212 Y67.095 E48.3756
M204 S3000
M205 X10 Y10
G0 F3000 X103.142 Y66.974
G0 X103.112 Y66.922
G0 X103.199 Y66.873
G0 X103.241 Y67.052
G0 X101.692 Y70.02
G0 X101.792 Y70.02
M204 S1800
M205 X8 Y8
G1 F1800 X101.873 Y70.161 E48.38393
G1 X103.396 Y72.8 E48.46933
G1 X106.607 Y72.801 E48.59121
G1 X108.13 Y70.162 E48.67674
G1 X108.212 Y70.02 E48.68514
G1 X108.196 Y69.992 E48.6868
G1 X106.607 Y67.24 E48.7541
G1 X103.396 Y67.241 E48.91807
G1 X101.808 Y69.993 E48.98553
G1 X101.792 Y70.02 E48.98666
M204 S3000
M205 X10 Y10
G0 F3000 X101.873 Y70.161
G0 X101.892 Y70.193
G0 X101.805 Y70.241
G0 X98.376 Y70.282
G0 X96.627 Y72.834
G0 X93.252 Y73.095
G0 X91.627 Y75.91
G0 X88.376 Y75.909
G0 X86.627 Y73.181
G0 X83.376 Y73.182
G0 X81.627 Y75.909
G0 X77.777 Y76.095
G0 X77.877 Y76.095
M204 S1800
M205 X8 Y8
;TYPE:WALL-INNER
G1 F1800 X76.861 Y77.854 E49.09071
G1 X76.34 Y78.757 E49.14411
G1 X76.34 Y77.715 E49.1717
G1 X76.34 Y77.714 E49.17176
G1 X76.34 Y74.476 E49.33761
G1 X76.34 Y74.475 E49.33766
G1 X76.34 Y73.433 E49.39103
G1 X76.861 Y74.336 E49.41864
G1 X77.877 Y76.095 E49.52269
M204 S3000
M205 X10 Y10
G0 F3000 X77.777 Y76.095
G0 X76.365 Y79.529
G0 X76.34 Y79.433
M204 S1800
M205 X8 Y8
G1 F1800 X76.861 Y80.336 E49.57609
G1 X77.877 Y82.095 E49.68013
G1 X76.861 Y83.854 E49.78418
G1 X76.34 Y84.757 E49.83758
G1 X76.34 Y83.715 E49.86517
G1 X76.34 Y83.714 E49.86522
G1 X76.34 Y80.476 E50.03108
G1 X76.34 Y80.475 E50.03113
G1 X76.34 Y79.433 E50.05872
M204 S3000
M205 X10 Y10
G0 F3000 X76.365 Y79.529
G0 X77.777 Y76.095
G0 X78.396 Y76.315
M204 S1800
M205 X8 Y8
;TYPE:WALL-OUTER
G1 F1800 X76.792 Y79.095 E50.22312
G1 X78.396 Y81.875 E50.38751
G1 X81.607 Y81.875 E50.55198
G1 X83.212 Y79.095 E50.7164
G1 X83.12 Y78.935 E50.72586
G1 X81.607 Y76.315 E50.88082
G1 X78.396 Y76.315 E51.04529
M204 S3000
M205 X10 Y10
G0 F3000 X78.297 Y76.488
G0 X77.764 Y76.18
G0 X77.726 Y76.157
G0 X76.752 Y79.095
G0 X76.752 Y91.095
G0 X77.777 Y94.095
G0 X77.877 Y94.095
M204 S1800
M205 X8 Y8
;TYPE:WALL-INNER
G1 F1800 X76.861 Y95.854 E51.14934
G1 X76.34 Y96.757 E51.20274
G1 X76.34 Y95.715 E51.23033
G1 X76.34 Y95.714 E51.23038
G1 X76.34 Y92.476 E51.39624
G1 X76.34 Y92.475 E51.39629
G1 X76.34 Y91.433 E51.44966
G1 X76.861 Y92.336 E51.47727
G1 X77.877 Y94.095 E51.58131
M204 S3000
M205 X10 Y10
G0 F3000 X77.777 Y94.095
G0 X76.365 Y97.529
G0 X76.34 Y97.433
M204 S1800
M205 X8 Y8
G1 F1800 X76.861 Y98.336 E51.63471
G1 X77.877 Y100.095 E51.73876
G1 X76.861 Y101.854 E51.84281
G1 X76.34 Y102.757 E51.8962
G1 X76.34 Y101.715 E51.9238
G1 X76.34 Y101.714 E51.92385
G1 X76.34 Y98.476 E52.0897
G1 X76.34 Y98.475 E52.08975
G1 X76.34 Y97.433 E52.11735
M204 S3000
M205 X10 Y10
G0 F3000 X76.365 Y97.529
G0 X77.777 Y94.095
G0 X78.396 Y94.315
M204 S1800
M205 X8 Y8
;TYPE:WALL-OUTER
G1 F1800 X76.792 Y97.095 E52.28174
G1 X78.396 Y99.875 E52.44614
G1 X81.607 Y99.875 E52.61061
G1 X81.644 Y99.811 E52.6144
G1 X83.212 Y97.095 E52.77503
G1 X83.088 Y96.88 E52.78774
G1 X81.607 Y94.315 E52.93945
G1 X78.396 Y94.315 E53.10392
M204 S3000
M205 X10 Y10
G0 F3000 X78.297 Y94.488
G0 X77.764 Y94.18
G0 X77.726 Y94.157
G0 X81.627 Y94.281
G0 X83.376 Y97.082
G0 X86.626 Y97.081
G0 X88.346 Y99.961
G0 X88.396 Y99.875
M204 S1800
M205 X8 Y8
G1 F1800 X91.607 Y99.876 E53.26839
G1 X91.645 Y99.811 E53.27225
G1 X93.212 Y97.095 E53.43285
G1 X93.087 Y96.879 E53.44564
G1 X91.607 Y94.315 E53.59728
G1 X88.396 Y94.316 E53.76174
G1 X86.916 Y96.88 E53.91338
G1 X86.792 Y97.095 E53.9261
G1 X88.359 Y99.81 E54.08666
G1 X88.396 Y99.875 E54.09049
M204 S3000
M205 X10 Y10
G0 F3000 X88.596 Y99.875
G0 X88.596 Y99.975
G0 X88.376 Y99.909
G0 X86.626 Y97.081
G0 X83.346 Y97.03
G0 X83.396 Y97.116
M204 S1800
M205 X8 Y8
G1 F1800 X83.36 Y97.179
G1 X81.792 Y99.895 E54.13929
G1 X81.927 Y100.129 E54.14925
G1 X83.396 Y102.675 E54.2998
G1 X86.607 Y102.676 E54.46427
G1 X88.076 Y100.13 E54.61483
G1 X88.212 Y99.895 E54.62483
G1 X86.645 Y97.181 E54.67338
G1 X86.607 Y97.115 E54.67351
G1 X83.396 Y97.116 E54.83797
M204 S3000
M205 X10 Y10
G0 F3000 X83.36 Y97.179
G0 X83.296 Y97.289
G0 X83.211 Y97.238
G0 X81.627 Y99.909
G0 X78.376 Y100.281
G0 X76.365 Y103.529
G0 X76.34 Y103.433
M204 S1800
M205 X8 Y8
;TYPE:WALL-INNER
G1 F1800 X76.861 Y104.336 E54.89137
G1 X77.877 Y106.095 E54.99542
G1 X76.861 Y107.854 E55.09947
G1 X76.34 Y108.757 E55.15286
G1 X76.34 Y107.715 E55.18046
G1 X76.34 Y107.714 E55.18051
G1 X76.34 Y104.476 E55.34636
G1 X76.34 Y104.475 E55.34641
G1 X76.34 Y103.433 E55.37401
M204 S3000
M205 X10 Y10
G0 F3000 X76.365 Y103.529
G0 X77.777 Y100.095
G0 X78.396 Y100.315
M204 S1800
M205 X8 Y8
;TYPE:WALL-OUTER
G1 F1800 X76.792 Y103.095 E55.5384
G1 X78.396 Y105.875 E55.7028
G1 X81.607 Y105.875 E55.86727
G1 X81.655 Y105.792 E55.87218
G1 X83.212 Y103.095 E56.03169
