;FLAVOR:Marlin
;TIME:3816
;Filament used: 4.9797m
;Layer height: 0.2
;Generated with Cura_SteamEngine 3.4.1
M190 S60
M104 S210
M109 S210
M82 ;absolute extrusion mode
G21 ;metric values
G90 ;absolute positioning
M82 ;set extruder to absolute mode
M107 ;start with the fan off
G28 X0 Y0 ;move X/Y to min endstops
G28 Z0 ;move Z to min endstops
G1 Z15.0 F100 ;move the platform down 15mm
G92 E0 ;zero the extruded length
G1 F200 E3 ;extrude 3mm of feed stock
G92 E0 ;zero the extruded length again
G1 F100
M117 Printing...
G5
G92 E0
G1 F2400 E-6
;LAYER_COUNT:122
;LAYER:0
M106 S255
M204 S3000
M205 X10 Y10
G0 F3000 X70.298 Y34.926 Z0.2
M204 S1800
M205 X8 Y8
;TYPE:SKIRT
G1 F2400 E0
G1 X70.641 Y34.336 E0.03496
G1 X71.051 Y33.789 E0.06997
G1 X71.522 Y33.294 E0.10497
G1 X72.048 Y32.858 E0.13996
G1 X72.621 Y32.486 E0.17495
G1 X73.234 Y32.183 E0.20998
G1 X73.877 Y31.955 E0.24492
G1 X74.543 Y31.802 E0.27992
G1 X75.509 Y31.722 E0.32957
G1 X134.489 Y31.722 E3.35056
G1 X135.171 Y31.762 E3.38556
G1 X135.844 Y31.881 E3.42056
G1 X136.498 Y32.078 E3.45555
G1 X137.125 Y32.351 E3.49058
G1 X137.715 Y32.694 E3.52553
G1 X138.262 Y33.104 E3.56055
G1 X138.757 Y33.575 E3.59554
G1 X139.193 Y34.101 E3.63054
G1 X139.565 Y34.674 E3.66553
G1 X139.868 Y35.287 E3.70055
G1 X140.096 Y35.93 E3.7355
G1 X140.249 Y36.596 E3.7705
G1 X140.329 Y37.562 E3.82015
G1 X140.331 Y117.544 E7.91688
G1 X140.291 Y118.226 E7.95187
G1 X140.172 Y118.899 E7.98687
G1 X139.975 Y119.553 E8.02186
G1 X139.702 Y120.18 E8.05689
G1 X139.359 Y120.77 E8.09184
G1 X138.949 Y121.317 E8.12686
G1 X138.478 Y121.811 E8.16182
G1 X137.952 Y122.248 E8.19684
G1 X137.379 Y122.62 E8.23184
G1 X136.767 Y122.922 E8.26679
G1 X136.123 Y123.151 E8.3018
G1 X135.457 Y123.304 E8.3368
G1 X134.491 Y123.384 E8.38645
G1 X75.509 Y123.384 E11.40755
G1 X74.827 Y123.344 E11.44254
G1 X74.154 Y123.225 E11.47754
G1 X73.5 Y123.028 E11.51253
G1 X72.873 Y122.755 E11.54756
G1 X72.283 Y122.412 E11.58251
G1 X71.736 Y122.002 E11.61753
G1 X71.241 Y121.531 E11.65253
G1 X70.805 Y121.005 E11.68752
G1 X70.433 Y120.432 E11.72251
G1 X70.13 Y119.819 E11.75754
G1 X69.902 Y119.176 E11.79248
G1 X69.749 Y118.51 E11.82748
G1 X69.669 Y117.544 E11.87713
G1 X69.669 Y37.562 E15.97386
G1 X69.709 Y36.88 E16.00885
G1 X69.828 Y36.207 E16.04386
G1 X70.025 Y35.553 E16.07884
G1 X70.298 Y34.926 E16.11387
M204 S3000
M205 X10 Y10
G0 F3000 X70.856 Y35.066
M204 S1800
M205 X8 Y8
G1 F2400 X71.198 Y34.513 E16.14717
G1 X71.605 Y34.007 E16.18043
G1 X72.071 Y33.554 E16.21372
G1 X72.589 Y33.163 E16.24696
G1 X73.152 Y32.837 E16.28029
G1 X73.75 Y32.584 E16.31355
G1 X74.374 Y32.405 E16.3468
G1 X75.016 Y32.305 E16.38008
G1 X75.509 Y32.282 E16.40536
G1 X134.489 Y32.282 E19.42635
G1 X135.137 Y32.322 E19.4596
G1 X135.776 Y32.441 E19.49289
G1 X136.395 Y32.638 E19.52617
G1 X136.985 Y32.909 E19.55942
G1 X137.538 Y33.251 E19.59273
G1 X138.044 Y33.658 E19.62599
G1 X138.497 Y34.124 E19.65928
G1 X138.888 Y34.642 E19.69252
G1 X139.214 Y35.205 E19.72584
G1 X139.467 Y35.803 E19.7591
G1 X139.646 Y36.427 E19.79235
G1 X139.746 Y37.069 E19.82563
G1 X139.769 Y37.562 E19.85091
G1 X139.771 Y117.544 E23.94764
G1 X139.731 Y118.192 E23.98089
G1 X139.612 Y118.831 E24.01418
G1 X139.415 Y119.45 E24.04745
G1 X139.144 Y120.04 E24.08071
G1 X138.802 Y120.593 E24.11401
G1 X138.395 Y121.099 E24.14728
G1 X137.929 Y121.551 E24.18053
G1 X137.411 Y121.943 E24.2138
G1 X136.848 Y122.269 E24.24712
G1 X136.25 Y122.522 E24.28038
G1 X135.626 Y122.701 E24.31363
G1 X134.984 Y122.801 E24.34691
G1 X134.491 Y122.824 E24.37219
G1 X75.509 Y122.824 E27.39329
G1 X74.861 Y122.784 E27.42654
G1 X74.222 Y122.665 E27.45983
G1 X73.603 Y122.468 E27.49311
G1 X73.013 Y122.197 E27.52636
G1 X72.46 Y121.855 E27.55967
G1 X71.954 Y121.448 E27.59293
G1 X71.501 Y120.982 E27.62621
G1 X71.11 Y120.464 E27.65946
G1 X70.784 Y119.901 E27.69278
G1 X70.531 Y119.303 E27.72604
G1 X70.352 Y118.679 E27.75929
G1 X70.252 Y118.037 E27.79257
G1 X70.229 Y117.544 E27.81785
G1 X70.229 Y37.562 E31.91457
G1 X70.269 Y36.914 E31.94783
G1 X70.388 Y36.275 E31.98112
G1 X70.585 Y35.656 E32.01439
G1 X70.856 Y35.066 E32.04765
M204 S3000
M205 X10 Y10
G1 F2400 E26.04765
G0 F3000 X74.835 Y114.409
G0 X76.345 Y114.409
G0 X77.446 Y116.478
G0 X77.496 Y116.392
M204 S1800
M205 X8 Y8
;TYPE:WALL-INNER
G1 F2400 E32.04765
G1 F1800 X132.507 Y116.392 E34.86535
G1 X132.61 Y116.214 E34.87588
G1 X133.139 Y115.298 E34.93006
G1 X133.66 Y114.396 E34.98341
G1 X133.66 Y115.437 E35.01098
G1 X133.66 Y115.438 E35.01104
G1 X133.66 Y116.713 E35.07634
G1 X132.713 Y116.713 E35.12485
G1 X132.507 Y116.713 E35.13346
G1 X77.496 Y116.713 E36.75149
G1 X77.29 Y116.713 E36.76204
G1 X76.34 Y116.713 E36.8107
G1 X76.34 Y115.433 E36.87627
G1 X76.34 Y115.432 E36.87632
G1 X76.34 Y114.39 E36.92969
G1 X76.861 Y115.293 E36.9573
G1 X77.393 Y116.214 E37.01178
G1 X77.496 Y116.392 E37.02036
M204 S3000
M205 X10 Y10
G0 F3000 X77.446 Y116.478
G0 X82.323 Y116.492
G0 X82.323 Y115.832
M204 S1800
M205 X8 Y8
;TYPE:WALL-OUTER
G1 F1800 X87.358 Y115.833 E37.27826
G1 X87.473 Y115.633 E37.29008
G1 X87.519 Y115.553 E37.2948
G1 X86.688 Y114.113 E37.37996
G1 X86.607 Y113.972 E37.38829
G1 X83.396 Y113.973 E37.55276
G1 X83.316 Y114.111 E37.56093
G1 X82.323 Y115.832 E37.6627
M204 S3000
M205 X10 Y10
G0 F3000 X82.523 Y115.832
G0 X82.523 Y116.448
G0 X82.523 Y116.492
G0 X77.799 Y115.866
G0 X76.752 Y114.052
G0 X77.777 Y111.052
G0 X77.877 Y111.052
M204 S1800
M205 X8 Y8
;TYPE:WALL-INNER
G1 F1800 X76.861 Y112.811 E37.76675
G1 X76.34 Y113.714 E37.82015
G1 X76.34 Y112.672 E37.84774
G1 X76.34 Y112.671 E37.84779
G1 X76.34 Y109.433 E38.01364
G1 X76.34 Y109.432 E38.0137
G1 X76.34 Y108.391 E38.06702
G1 X76.861 Y109.293 E38.0946
G1 X77.877 Y111.052 E38.19865
M204 S3000
M205 X10 Y10
G0 F3000 X77.777 Y111.052
G0 X81.627 Y111.238
G0 X83.312 Y114.052
G0 X83.212 Y114.052
M204 S1800
M205 X8 Y8
;TYPE:WALL-OUTER
G1 F1800 X83.044 Y113.762 E38.20992
G1 X81.607 Y111.272 E38.35718
G1 X78.396 Y111.272 E38.52164
G1 X76.792 Y114.052 E38.68604
G1 X77.819 Y115.832 E38.7913
G1 X82.184 Y115.832 E39.01488
G1 X82.218 Y115.773 E39.01837
G1 X83.212 Y114.052 E39.04013
M204 S3000
M205 X10 Y10
G0 F3000 X83.112 Y113.879
G0 X83.199 Y113.83
G0 X86.627 Y113.938
G0 X87.559 Y115.553
G0 X87.819 Y116.492
G0 X87.819 Y115.832
M204 S1800
M205 X8 Y8
G1 F1800 X92.184 Y115.833 E39.26371
G1 X92.219 Y115.773 E39.26726
G1 X93.213 Y114.053 E39.36902
G1 X93.044 Y113.761 E39.3863
G1 X91.607 Y111.272 E39.53351
G1 X88.396 Y111.273 E39.69798
G1 X86.96 Y113.761 E39.84512
G1 X86.792 Y114.052 E39.8564
G1 X87.623 Y115.492 E39.87465
G1 X87.704 Y115.632 E39.8789
G1 X87.819 Y115.832 E39.88679
M204 S3000
M205 X10 Y10
G0 F3000 X88.019 Y115.832
G0 X88.019 Y116.448
G0 X88.019 Y116.492
G0 X92.323 Y116.492
G0 X92.323 Y115.832
M204 S1800
M205 X8 Y8
G1 F1800 X97.358 Y115.832 E40.14469
G1 X97.473 Y115.632 E40.1565
G1 X97.519 Y115.552 E40.16123
G1 X96.688 Y114.113 E40.24634
G1 X96.607 Y113.972 E40.25467
G1 X93.396 Y113.972 E40.41914
G1 X93.316 Y114.111 E40.42139
G1 X92.323 Y115.832 E40.44292
M204 S3000
M205 X10 Y10
G0 F3000 X92.523 Y115.832
G0 X92.523 Y116.448
G0 X92.523 Y116.492
G0 X92.289 Y115.852
G0 X93.376 Y113.938
G0 X96.905 Y113.817
G0 X98.376 Y111.239
G0 X101.657 Y110.919
G0 X101.607 Y110.833
M204 S1800
M205 X8 Y8
G1 F1800 X101.677 Y110.711 E40.45013
G1 X103.212 Y108.052 E40.60739
G1 X103.055 Y107.781 E40.62343
G1 X101.607 Y105.273 E40.77176
G1 X98.396 Y105.273 E40.93623
G1 X96.949 Y107.779 E41.08445
G1 X96.792 Y108.052 E41.10058
G1 X98.326 Y110.711 E41.25782
G1 X98.396 Y110.832 E41.26498
G1 X101.607 Y110.833 E41.42945
M204 S3000
M205 X10 Y10
G0 F3000 X101.677 Y110.711
G0 X101.707 Y110.66
G0 X101.792 Y110.711
G0 X101.752 Y110.777
G0 X103.253 Y114.053
G0 X102.254 Y115.755
G0 X102.323 Y116.492
G0 X102.323 Y115.832
M204 S1800
M205 X8 Y8
G1 F1800 X107.358 Y115.833 E41.68734
G1 X107.473 Y115.633 E41.69916
G1 X107.519 Y115.553 E41.70389
G1 X106.688 Y114.113 E41.78905
G1 X106.607 Y113.972 E41.79738
G1 X103.396 Y113.973 E41.96184
G1 X103.316 Y114.111 E41.97001
G1 X102.323 Y115.832 E42.07179
M204 S3000
M205 X10 Y10
G0 F3000 X102.523 Y115.832
G0 X102.523 Y116.448
G0 X102.523 Y116.492
G0 X102.289 Y115.851
G0 X103.313 Y114.053
G0 X103.213 Y114.053
M204 S1800
M205 X8 Y8
G1 F1800 X103.044 Y113.761 E42.08312
G1 X101.607 Y111.272 E42.23033
G1 X98.396 Y111.273 E42.35955
G1 X96.96 Y113.761 E42.50669
G1 X96.792 Y114.052 E42.51798
G1 X97.623 Y115.493 E42.53618
G1 X97.703 Y115.631 E42.54033
G1 X97.819 Y115.832 E42.54828
G1 X102.184 Y115.833 E42.77186
G1 X102.219 Y115.773 E42.77542
G1 X103.213 Y114.053 E42.79695
M204 S3000
M205 X10 Y10
G0 F3000 X103.113 Y113.88
G0 X103.2 Y113.831
G0 X106.627 Y113.938
G0 X107.559 Y115.553
G0 X107.819 Y116.492
G0 X107.819 Y115.832
M204 S1800
M205 X8 Y8
G1 F1800 X112.184 Y115.833 E43.02053
G1 X112.219 Y115.773 E43.02409
G1 X113.213 Y114.053 E43.12584
G1 X113.044 Y113.761 E43.14312
G1 X111.607 Y111.272 E43.29033
G1 X108.396 Y111.273 E43.4548
G1 X106.96 Y113.761 E43.60194
G1 X106.792 Y114.052 E43.61322
G1 X107.623 Y115.492 E43.63147
G1 X107.704 Y115.632 E43.63572
G1 X107.819 Y115.832 E43.64361
M204 S3000
M205 X10 Y10
G0 F3000 X108.019 Y115.832
G0 X108.019 Y116.448
G0 X108.019 Y116.492
G0 X112.323 Y116.492
G0 X112.323 Y115.832
M204 S1800
M205 X8 Y8
G1 F1800 X117.358 Y115.832 E43.90151
G1 X117.473 Y115.632 E43.91332
G1 X117.519 Y115.552 E43.91805
G1 X116.688 Y114.113 E44.00316
G1 X116.607 Y113.972 E44.01149
G1 X113.396 Y113.972 E44.17596
G1 X113.316 Y114.111 E44.17821
G1 X112.323 Y115.832 E44.19974
M204 S3000
M205 X10 Y10
G0 F3000 X112.523 Y115.832
G0 X112.523 Y116.448
G0 X112.523 Y116.492
G0 X122.203 Y115.867
G0 X123.376 Y113.939
G0 X126.838 Y113.908
G0 X128.376 Y111.238
G0 X131.627 Y111.238
G0 X133.226 Y112.756
G0 X133.139 Y112.805
M204 S1800
M205 X8 Y8
;TYPE:WALL-INNER
G1 F1800 X132.126 Y111.052 E44.30345
G1 X133.139 Y109.299 E44.40715
G1 X133.66 Y108.397 E44.4605
G1 X133.66 Y109.438 E44.48807
G1 X133.66 Y109.439 E44.48813
G1 X133.66 Y112.665 E44.65336
G1 X133.66 Y112.666 E44.65341
G1 X133.66 Y113.707 E44.70673
G1 X133.139 Y112.805 E44.73432
M204 S3000
M205 X10 Y10
G0 F3000 X133.226 Y112.756
G0 X133.252 Y114.052
G0 X132.204 Y115.866
G0 X127.819 Y116.492
G0 X127.819 Y115.832
M204 S1800
M205 X8 Y8
;TYPE:WALL-OUTER
G1 F1800 X132.184 Y115.832 E44.9579
G1 X133.212 Y114.052 E45.06318
G1 X131.607 Y111.272 E45.22761
G1 X128.396 Y111.272 E45.39207
G1 X126.96 Y113.761 E45.53926
G1 X126.792 Y114.052 E45.55647
G1 X127.623 Y115.492 E45.64163
G1 X127.704 Y115.632 E45.64991
G1 X127.819 Y115.832 E45.66173
M204 S3000
M205 X10 Y10
G0 F3000 X128.019 Y115.832
G0 X128.019 Y116.448
G0 X128.019 Y116.492
G0 X122.323 Y116.492
G0 X122.323 Y115.832
M204 S1800
M205 X8 Y8
G1 F1800 X127.358 Y115.833 E45.91963
G1 X127.473 Y115.633 E45.92741
G1 X127.519 Y115.553 E45.92823
G1 X126.688 Y114.113 E45.94647
G1 X126.607 Y113.972 E45.94885
G1 X123.396 Y113.973 E46.11332
G1 X123.316 Y114.111 E46.12149
G1 X122.323 Y115.832 E46.22327
M204 S3000
M205 X10 Y10
G0 F3000 X122.523 Y115.832
G0 X122.523 Y116.448
G0 X122.523 Y116.492
G0 X122.289 Y115.851
G0 X123.313 Y114.053
G0 X123.213 Y114.053
M204 S1800
M205 X8 Y8
G1 F1800 X123.044 Y113.761 E46.2346
G1 X121.607 Y111.272 E46.38181
G1 X118.396 Y111.273 E46.54628
G1 X116.96 Y113.761 E46.69342
G1 X116.792 Y114.052 E46.7047
G1 X117.623 Y115.493 E46.7229
G1 X117.703 Y115.631 E46.72705
G1 X117.819 Y115.832 E46.735
G1 X122.184 Y115.833 E46.95858
G1 X122.219 Y115.773 E46.96214
G1 X123.213 Y114.053 E46.98367
M204 S3000
M205 X10 Y10
G0 F3000 X123.113 Y113.88
G0 X123.2 Y113.831
G0 X121.657 Y110.919
G0 X121.607 Y110.833
M204 S1800
M205 X8 Y8
G1 F1800 X121.677 Y110.711 E46.99088
G1 X123.212 Y108.052 E47.14814
G1 X123.055 Y107.781 E47.16418
G1 X121.607 Y105.273 E47.31251
G1 X118.396 Y105.273 E47.47698
G1 X116.95 Y107.78 E47.62522
G1 X116.792 Y108.053 E47.64138
G1 X118.326 Y110.711 E47.79857
G1 X118.396 Y110.832 E47.80573
G1 X121.607 Y110.833 E47.93495
M204 S3000
M205 X10 Y10
G0 F3000 X121.677 Y110.711
G0 X121.707 Y110.66
G0 X121.792 Y110.711
G0 X123.252 Y108.052
G0 X121.752 Y104.802
G0 X123.376 Y101.989
G0 X121.752 Y98.827
G0 X123.376 Y96.014
G0 X121.752 Y92.852
G0 X123.376 Y90.039
G0 X126.584 Y90.032
G0 X128.252 Y86.878
G0 X126.752 Y84.052
G0 X128.376 Y80.866
G0 X126.752 Y78.053
G0 X128.376 Y74.866
G0 X126.752 Y72.052
G0 X128.376 Y69.238
G0 X131.627 Y68.866
G0 X133.252 Y66.052
G0 X133.635 Y59.611
G0 X133.66 Y59.707
M204 S1800
M205 X8 Y8
;TYPE:WALL-INNER
G1 F1800 X133.139 Y58.805 E47.98831
G1 X132.126 Y57.052 E48.09201
G1 X133.139 Y55.299 E48.19572
G1 X133.66 Y54.397 E48.24907
G1 X133.66 Y55.438 E48.27664
G1 X133.66 Y55.439 E48.27669
G1 X133.66 Y58.665 E48.44193
G1 X133.66 Y58.666 E48.44198
G1 X133.66 Y59.707 E48.46955
M204 S3000
M205 X10 Y10
G0 F3000 X133.66 Y60.397
M204 S1800
M205 X8 Y8
G1 F1800 X133.66 Y61.438 E48.52287
G1 X133.66 Y61.439 E48.52292
G1 X133.66 Y64.665 E48.68816
G1 X133.66 Y64.666 E48.68821
G1 X133.66 Y65.707 E48.74153
G1 X133.139 Y64.805 E48.76912
G1 X132.126 Y63.052 E48.87282
G1 X133.139 Y61.299 E48.97652
G1 X133.66 Y60.397 E49.00411
M204 S3000
M205 X10 Y10
G0 F3000 X133.635 Y60.493
G0 X131.627 Y62.866
G0 X128.346 Y62.918
G0 X128.396 Y62.832
M204 S1800
M205 X8 Y8
;TYPE:WALL-OUTER
G1 F1800 X131.607 Y62.832 E49.16858
G1 X133.212 Y60.052 E49.333
G1 X131.607 Y57.272 E49.49742
G1 X128.396 Y57.272 E49.66189
G1 X126.862 Y59.93 E49.81908
G1 X126.792 Y60.052 E49.82629
G1 X126.808 Y60.08 E49.82794
G1 X128.396 Y62.832 E49.99068
M204 S3000
M205 X10 Y10
G0 F3000 X128.596 Y62.832
G0 X128.596 Y62.932
G0 X131.627 Y63.238
G0 X133.252 Y66.052
G0 X133.252 Y72.052
G0 X131.627 Y74.866
G0 X128.376 Y75.238
G0 X126.752 Y78.053
G0 X128.312 Y80.902
G0 X128.212 Y80.902
M204 S1800
M205 X8 Y8
G1 F1800 X126.624 Y78.151 E50.15338
G1 X126.607 Y78.122 E50.1551
G1 X123.396 Y78.123 E50.31957
G1 X123.381 Y78.148 E50.32107
G1 X121.792 Y80.902 E50.48392
G1 X121.905 Y81.099 E50.49556
G1 X123.396 Y83.682 E50.64832
G1 X126.607 Y83.683 E50.81279
G1 X128.098 Y81.099 E50.96559
G1 X128.212 Y80.902 E50.97725
M204 S3000
M205 X10 Y10
G0 F3000 X128.112 Y80.729
G0 X128.199 Y80.68
G0 X128.241 Y80.859
G0 X126.657 Y84.011
G0 X126.607 Y84.097
M204 S1800
M205 X8 Y8
G1 F1800 X123.396 Y84.098 E51.09914
G1 X123.37 Y84.143 E51.1018
G1 X121.792 Y86.877 E51.26349
G1 X121.916 Y87.092 E51.2762
G1 X123.396 Y89.657 E51.42788
G1 X126.607 Y89.658 E51.59235
G1 X128.087 Y87.095 E51.74395
G1 X128.212 Y86.878 E51.75677
G1 X126.633 Y84.143 E51.91853
G1 X126.607 Y84.097 E51.92124
M204 S3000
M205 X10 Y10
G0 F3000 X126.407 Y84.097
G0 X126.407 Y83.997
G0 X128.376 Y81.238
G0 X131.627 Y81.238
G0 X133.635 Y83.611
G0 X133.66 Y83.707
M204 S1800
M205 X8 Y8
;TYPE:WALL-INNER
G1 F1800 X133.139 Y82.805 E51.97459
G1 X132.126 Y81.052 E52.0783
G1 X133.139 Y79.299 E52.182
G1 X133.66 Y78.397 E52.23535
G1 X133.66 Y79.438 E52.26292
G1 X133.66 Y79.439 E52.26297
G1 X133.66 Y82.665 E52.42821
G1 X133.66 Y82.666 E52.42826
G1 X133.66 Y83.707 E52.45583
M204 S3000
M205 X10 Y10
G0 F3000 X133.66 Y84.397
M204 S1800
M205 X8 Y8
G1 F1800 X133.66 Y85.438 E52.50915
G1 X133.66 Y85.439 E52.5092
G1 X133.66 Y88.665 E52.67444
G1 X133.66 Y88.666 E52.67449
G1 X133.66 Y89.707 E52.72781
G1 X133.139 Y88.805 E52.7554
G1 X132.126 Y87.052 E52.8591
G1 X133.139 Y85.299 E52.96281
G1 X133.66 Y84.397 E52.99039
M204 S3000
M205 X10 Y10
G0 F3000 X133.635 Y84.493
G0 X131.627 Y86.866
G0 X128.346 Y86.918
G0 X128.396 Y86.832
M204 S1800
M205 X8 Y8
;TYPE:WALL-OUTER
G1 F1800 X131.607 Y86.832 E53.15486
G1 X133.212 Y84.052 E53.31928
G1 X131.607 Y81.272 E53.4837
G1 X128.396 Y81.272 E53.64817
G1 X126.906 Y83.855 E53.74197
G1 X126.792 Y84.052 E53.75036
G1 X128.37 Y86.786 E53.80301
G1 X128.396 Y86.832
M204 S3000
M205 X10 Y10
G0 F3000 X128.596 Y86.832
G0 X128.596 Y86.932
G0 X131.627 Y87.238
G0 X133.252 Y90.052
G0 X133.252 Y96.052
G0 X132.226 Y99.052
G0 X132.126 Y99.052
M204 S1800
M205 X8 Y8
;TYPE:WALL-INNER
G1 F1800 X133.139 Y97.299 E53.90672
G1 X133.66 Y96.397 E53.96007
G1 X133.66 Y97.438 E53.98764
G1 X133.66 Y97.439 E53.98769
G1 X133.66 Y100.665 E54.15293
G1 X133.66 Y100.666 E54.15298
G1 X133.66 Y101.707 E54.2063
G1 X133.139 Y100.805 E54.23389
G1 X132.126 Y99.052 E54.33759
M204 S3000
M205 X10 Y10
